X:235
T:Paddy Lynn's delight
R:Reel
O:Ireland
S:Music from Ireland Vol. 3
B:Music from Ireland Vol. 3
Z:Transcription, chords:Mike Long
M:C|
L:1/8
K:C
"Am"eA ~A2 cBAG|"G"EG ~G2 AGEG|"Am"eA ~A2 cBAB|"Em/C"cded "G"eaag|"Am"eA ~A2 cBAG|
"G"EG ~G2 AGEG|"C"cdeg "G"agec|"Am"Ac"G"BG "Am"A4:|\
|:"C"~c2 gc acgc|"C"cdeg "G"aege|"C"~c2gc acgc|
"G"~d2 ed "Am"cAAB|"C"~c2 gc acgc|"C"cdeg "G"agea|"C"gc'ba "G"gedB|"Am"Ac"G"BG "Am"A4:|
